source/svgs/bowtie/uEA7B-file-type-fs.svg

<svg xmlns="http://www.w3.org/2000/svg" viewBox="0 0 448 448" enable-background="new 0 0 448 448"><path d="M108.609 310.344h-55.343v38.5h50.859v28.625h-50.859v60.938h-35.328v-156.844h90.672v28.781zm136.5 11.125l-4.266 19.688h-20.234l-6.016 27.125h22.641l-4.922 19.688h-21.766l-8.531 37.875h-21.875l7.984-37.875h-25.047l-8.094 37.875h-21.875l7.766-37.875h-20.344l4.047-19.688h20.563l5.797-27.125h-22.094l3.719-19.688h22.422l8.094-38.938h22.422l-8.094 38.938h25.047l8.313-38.938h22.203l-8.094 38.938h20.234zm-46.593 19.687h-25.375l-6.016 27.125h25.266l6.125-27.125zm-102.516-85.156v-224h160v128h128v256h32v-294.624l-121.376-121.376h-230.624v256h32zm192-217.376l89.376 89.376h-89.376v-89.376z"/><rect x="288" y="416" width="128" height="32"/></svg>

<svg xmlns="http://www.w3.org/2000/svg" viewBox="0 0 448 448"><path d="M108.609 310.344H53.266v38.5h50.859v28.625H53.266v60.938H17.938V281.563h90.672v28.781zm136.5 11.125l-4.266 19.688h-20.234l-6.016 27.125h22.641l-4.922 19.688h-21.766l-8.531 37.875H180.14l7.984-37.875h-25.047l-8.094 37.875h-21.875l7.766-37.875H120.53l4.047-19.688h20.563l5.797-27.125h-22.094l3.719-19.688h22.422l8.094-38.938H185.5l-8.094 38.938h25.047l8.313-38.938h22.203l-8.094 38.938h20.234zm-46.593 19.687h-25.375l-6.016 27.125h25.266l6.125-27.125zM96 256V32h160v128h128v256h32V121.376L294.624 0H64v256h32zM288 38.624L377.376 128H288V38.624zM288 416h128v32H288z"/></svg>
